X:1
T:Title
%%score { ( 1 4 ) | ( 2 3 5 ) }
L:1/8
Q:1/4=100
M:4/4
K:F
V:1 treble nm="Grand Piano"
V:4 treble 
V:2 bass 
V:3 bass 
V:5 bass 
V:1
 [FA]2 B2 [DFA]2 [DF]F | [EG]G F>E[K:bass] [A,D]2 [A,D][K:treble]E | [DF]2 DD E2 ^CE | ED D6 | %4
w: ?????~???? * * * *||||
 [FA]2 B2 [DFA]2 [DF]F | [EG]G F>E[K:bass] [A,D]2 [A,D][K:treble]E | [DF]2 DD E2 ^CE | %7
w: |||
[M:3/4] ED D4 |[M:1/4] [FA]>A |[M:4/4] A>A [FA]>[EG] [DB]2 B>B | [EB]>B B>[FA] [Ac]2 [Fd]>d | %11
w: ||||
 d>c B>A [EG]2 E>F | G>c B>G [FA]2 A>d | [Ac]>A B>A [EG]2 G>c | [DB]>G A>G F2 F>E | %15
w: ||||
 [A,D]>D D>B [EB]2 B>B | B>c [DB]>[EA] [DFA]4 |] %17
w: ||
V:2
 z2 G2 F,2 z D | z E D>^C D,2 z C | z2 A,A, [A,^C]2 z C | A,A, [D,F,A,]6 | z2 G2 F,2 z D | %5
 z E D>^C D,2 z C | z2 A,A, [A,^C]2 z C |[M:3/4] A,A, [D,F,A,]4 |[M:1/4] z z/ F/ | %9
[M:4/4] D>E A,,2 G,,2- [G,,-E]>[G,,E] | z z/[K:treble] F/ G>[K:bass][D,F,] [C,F,]2 z z/ F/ | %11
 B>[K:treble]A G>F[K:bass] z2 C>D | D>A G>E z2[K:treble] F>A | z z/ F/ G>F[K:bass] z2 E>A | %14
 z z/ E/ ^C>E D2 D>C | z z/ B,/ A,>E z2 G>F | E>G E,>^C D,4 |] %17
V:3
 [D,A,]4 z2 A,2 | [A,,G,]4 z2 B,,2 | z4 z2 A,2 | [^C,G,]2 z2 z4 | [D,A,]4 z2 A,2 | %5
 [A,,G,]4 z2 B,,2 | z4 z2 A,2 |[M:3/4] [^C,G,]2 z2 z2 |[M:1/4] [C,F,]2 |[M:4/4] [D,F,-]2 F,2 G,4- | %10
 G,4[K:treble][K:bass] z4 | z4[K:treble][K:bass] [C,G,]4 | z4 A,4[K:treble] | %13
 [F,A,]4[K:bass] [C,G,]4 | [B,,G,]2 [E,A,]2 [D,A,]4 | [F,,D,]4 [G,,D,]4- | [G,,D,]2 G,,2 z4 |] %17
V:4
 x8 | z4[K:bass] F,4[K:treble] | G,4 z4 | x8 | x8 | z4[K:bass] F,4[K:treble] | G,4 z4 |[M:3/4] x6 | %8
[M:1/4] x2 |[M:4/4] x8 | x8 | x8 | x8 | x8 | x8 | x8 | x8 |] %17
V:5
 x8 | x8 | A,,8 | x8 | x8 | x8 | A,,8 |[M:3/4] x6 |[M:1/4] x2 |[M:4/4] x8 | %10
 D,4[K:treble][K:bass] z2 [B,,B,]2- | [B,,B,]4[K:treble][K:bass] z4 | [D,-B,]4 D,4[K:treble] | %13
 x4[K:bass] x4 | x8 | x8 | x8 |] %17

